public/svg/profiles/steam.svg

<?xml version="1.0" encoding="UTF-8" standalone="no"?>
<svg width="50px" height="50px" viewBox="0 0 50 50" version="1.1" xmlns="http://www.w3.org/2000/svg" xmlns:xlink="http://www.w3.org/1999/xlink">
    <defs></defs>
    <g stroke="none" stroke-width="1" fill="none" fill-rule="evenodd">
        <g>
            <g>
                <rect id="Rectangle-path" fill="#25272B" x="0" y="0" width="50" height="50" rx="25"></rect>
                <path d="M35.3605263,23.2368421 C35.3605263,24.2763158 34.5894737,25.1184211 33.6407895,25.1184211 C32.6934211,25.1184211 31.9223684,24.2763158 31.9223684,23.2368421 C31.9223684,22.1973684 32.6934211,21.3552632 33.6421053,21.3552632 C34.5894737,21.3552632 35.3618421,22.1973684 35.3618421,23.2368421 L35.3605263,23.2368421 Z M33.6315789,19.7368421 C31.8684211,19.7368421 30.4381579,21.2921053 30.4210526,23.2157895 L28.4210526,26.35 C27.9045751,26.2914004 27.3840061,26.4172318 26.9513158,26.7052632 L17.8947368,22.7184211 C17.6578947,21.5447368 16.6973684,20.6592105 15.5526316,20.6592105 C14.2342105,20.6592105 13.1578947,21.8407895 13.1578947,23.2855263 C13.1578947,24.7289474 14.2342105,25.9065789 15.5526316,25.9065789 C16,25.9065789 16.4184211,25.7723684 16.7763158,25.5381579 L25.8342105,29.5157895 C26.0684211,30.6947368 27.0289474,31.5815789 28.1763158,31.5815789 C29.4157895,31.5815789 30.4394737,30.5421053 30.5578947,29.2171053 L33.6328947,26.7565789 C35.4052632,26.7565789 36.8434211,25.1881579 36.8434211,23.25 C36.8434211,21.3118421 35.4039474,19.7368421 33.6315789,19.7368421 L33.6315789,19.7368421 Z M33.6315789,20.8947368 C34.8197368,20.8947368 35.7842105,21.9473684 35.7842105,23.2473684 C35.7842105,24.5460526 34.8197368,25.5986842 33.6328947,25.5986842 C32.4460526,25.5986842 31.4815789,24.5460526 31.4815789,23.2473684 C31.4815789,21.9486842 32.4460526,20.8921053 33.6342105,20.8921053 L33.6315789,20.8947368 Z M15.5526316,21.3526316 C16.2315789,21.3526316 16.8157895,21.7671053 17.1118421,22.3763158 L16.2355263,21.9947368 L16.2355263,21.9973684 C15.5289474,21.7210526 14.7447368,22.0973684 14.4618421,22.8657895 C14.1802632,23.6328947 14.5052632,24.5013158 15.1894737,24.8355263 L15.1894737,24.8394737 L15.9328947,25.1644737 C15.8105263,25.1934211 15.6828947,25.2118421 15.5513158,25.2118421 C14.5776316,25.2118421 13.7907895,24.3539474 13.7907895,23.2855263 C13.7907895,22.2171053 14.5763158,21.3539474 15.5539474,21.3539474 L15.5526316,21.3526316 Z M28.175,27.0302632 C29.1513158,27.0302632 29.9381579,27.8894737 29.9381579,28.9578947 C29.9381579,30.0263158 29.1513158,30.8842105 28.175,30.8842105 C27.4960526,30.8842105 26.9092105,30.4697368 26.6144737,29.8578947 L27.4828947,30.2394737 C28.2026316,30.5552632 29.0197368,30.1776316 29.3092105,29.3907895 C29.5986842,28.6052632 29.2473684,27.7144737 28.5289474,27.3986842 L27.7947368,27.0776316 C27.9171053,27.0460526 28.0447368,27.0289474 28.1763158,27.0289474 L28.175,27.0302632 Z" id="Shape" fill="#FFFFFF"></path>
            </g>
        </g>
    </g>
</svg>

<svg width="50" height="50" viewBox="0 0 50 50" xmlns="http://www.w3.org/2000/svg"><g fill="none" fill-rule="evenodd"><rect fill="#25272B" width="50" height="50" rx="25"/><path d="M35.36 23.237c0 1.04-.77 1.88-1.72 1.88-.947 0-1.718-.84-1.718-1.88s.77-1.882 1.72-1.882c.947 0 1.72.842 1.72 1.882zm-1.728-3.5c-1.764 0-3.194 1.555-3.21 3.48l-2 3.133c-.517-.06-1.038.067-1.47.355l-9.057-3.987c-.237-1.173-1.198-2.06-2.342-2.06-1.32 0-2.395 1.183-2.395 2.628 0 1.443 1.076 2.62 2.395 2.62.447 0 .865-.134 1.223-.368l9.058 3.978c.234 1.18 1.195 2.066 2.342 2.066 1.24 0 2.263-1.04 2.382-2.365l3.075-2.46c1.772 0 3.21-1.57 3.21-3.507 0-1.938-1.44-3.513-3.21-3.513zm0 1.158c1.188 0 2.152 1.052 2.152 2.352 0 1.3-.964 2.352-2.15 2.352-1.188 0-2.152-1.054-2.152-2.353 0-1.298.964-2.355 2.152-2.355l-.002.003zm-18.08.458c.68 0 1.264.414 1.56 1.023l-.876-.38c-.707-.275-1.49.1-1.774.87-.282.767.043 1.635.727 1.97v.003l.743.324c-.122.03-.25.048-.382.048-.972 0-1.76-.858-1.76-1.926 0-1.07.786-1.932 1.764-1.932zm12.623 5.677c.976 0 1.763.86 1.763 1.928s-.787 1.926-1.763 1.926c-.68 0-1.266-.414-1.56-1.026l.868.38c.72.317 1.537-.06 1.826-.847.29-.785-.063-1.676-.78-1.99l-.735-.322c.122-.032.25-.05.38-.05v.002z" fill="#FFF"/></g></svg>
